X: 13333
M: 9/8
L: 1/8
K: G
V: 1 clef=treble middle=B
|:\
d^cd dcd cBA | d^cd ded cBA |
d^cd dcd AGF | EGF ED^C D3 ::\
g2G g2G g2G | edc BAG FED |\
{a}gfg {a}gfg gfe | dcB AGF G3 :|
V: 2 clef=bass middle=d
|:\
dfa dfa Aea | dfa dfa Aea |
dfa dfa def | g2g a2A d3 ::\
[g3G3] [g3G3] [e3E3] | [c3C3] [^c3^C3] [d3D3] |\
[G3G,3] [A3A,3] [B3B,3] | [c3C3] [d3D3] [g3G3] :|

